!!!!SEGMENT: pl-wtm--a-27-170-72_gold-artur--ostatni-raz-list-twoj-za-pozno-przyszedl-juz.krn
!!!cenid: 19xx:5
!!!COM: Gold, Artur
!!!COM-rismID: pe50044903
!!!CDT: 1897/03/17-1943
!!!CNT: Polish
!!!OTL: Ostatni raz/List twój za późno przyszedł już
!!!PDT: 1929
!!!AGN: Secular
!!!YEC: Copyright 2022 Narodowy Instytut Fryderyka Chopina (https://polishscores.org)
!!!YEM: License CC-BY-4.0 (https://creativecommons.org/licenses/by/4.0)
!!!SMS-siglum: PL-Wtm
!!!SMS-shelfmark: A.27.170/72
!!!SMS-variant:
!!!SMS-altvar:
!!!SMS-shelfwork: W
!!!NIFC-rismSourceID: 1001220665
!!!NIFC-rismChildID: 1001220665
!!!NIFC-islandoraID: pl-wtm:95372
!!!URL-pdf-islandora: https://repozytorium.nifc.pl/islandora/object/pl-wtm%3A95372/datastream/PDF/view
!!!URL-scan: https://polish.musicsources.pl/pl/lokalizacje/galeria/druki-muzyczne/20321/2 @EN{Scan on Polish Music Sources Website} @PL{Skany w portalu Dziedzictwo Muzyki Polskiej w otwartym dostępie}
!!!IIIF:
!!!ONB-nifc:
!!!AIN: 1 canto 2 piano
!!!key: C
**kern	**kern	**dynam	**kern	**text	**text
*part3	*part2	*part2	*part1	*part1	*part1
*staff3	*staff2	*	*staff1	*staff1	*staff1
*I"FORTEPIAN.	*I"FORTEPIAN.	*	*I"[ŚPIEW]	*	*
*I'	*I'	*	*I'	*	*
*Ipiano	*Ipiano	*	*Icanto	*	*
*ICklav	*ICklav	*	*ICvox	*	*
*IGacmp	*IGacmp	*	*IGsolo	*	*
*>[A,B,C,C1,C,C2,A,B,C,C1,C,C2]	*>[A,B,C,C1,C,C2,A,B,C,C1,C,C2]	*>[A,B,C,C1,C,C2,A,B,C,C1,C,C2]	*>[A,B,C,C1,C,C2,A,B,C,C1,C,C2]	*>[A,B,C,C1,C,C2,A,B,C,C1,C,C2]	*>[A,B,C,C1,C,C2,A,B,C,C1,C,C2]
*clefF4	*clefG2	*	*clefG2	*	*
*k[]	*k[]	*	*k[]	*	*
*C:	*C:	*	*C:	*	*
*M4/4	*M4/4	*	*M4/4	*	*
*met(c)	*met(c)	*	*met(c)	*	*
*	*	*	*	*v:1	*v:2
*>A	*>A	*>A	*>A	*>A	*>A
!	!	!LO:DY:b:rj	!	!	!
4A\	4a 4e 4c/	mf <	2ryy	.	.
4G#X\	4b 4f 4d/	.	.	.	.
4Gn\	4cc 4a 4e/	[	4ryy	.	.
=1	=1	=1	=1	=1	=1
*	*^	*	*	*	*
4F#X 4FF#X/	[1ee	4r	f	1ryy	.	.
4c 4A\	.	8ccL 8a 8d\	.	.	.	.
.	.	8ccJ 8a 8d\	.	.	.	.
4D 4DD/	.	4cc 4a 4d\	.	.	.	.
4c 4F#\	.	8ccL 8a 8d\	.	.	.	.
.	.	8ccJ 8a 8d\	.	.	.	.
=2	=2	=2	=2	=2	=2	=2
4F#X 4FF#X/	4ee/]	4cc 4a 4d\	.	1ryy	.	.
4d 4c 4A\	8dd/L	4a\	.	.	.	.
.	8cc/J	.	.	.	.	.
4D 4DD/	8b/L	4f#X\	.	.	.	.
.	8dd/	.	.	.	.	.
4D#X 4DD#X/	8cc/	4f#\	.	.	.	.
.	8a/J	.	.	.	.	.
=3	=3	=3	=3	=3	=3	=3
4E 4EE/	2b 2B/	4r	.	1ryy	.	.
4r	.	4g 4e 4c\	.	.	.	.
4GG 4GGG/	[2a [<2A/	4r	.	.	.	.
4r	.	4e 4c\	.	.	.	.
=4	=4	=4	=4	=4	=4	=4
4AA: 4AAA::/	4a] 4A/]	4c#X:: 4G:\	.	1ryy	.	.
4r	4g/	4ryy	>	.	.	.
2A\	8bL 8g 8c#/	2ryy	.	.	.	.
.	8a/	.	.	.	.	.
.	8b 8g 8c#/	.	.	.	.	.
.	8a/J	.	]	.	.	.
=5	=5	=5	=5	=5	=5	=5
4AA 4AAA/	[1e	4r	.	1ryy	.	.
4r	.	4cn 4F#X\	.	.	.	.
4AA-X 4AAA-X/	.	4r	.	.	.	.
4r	.	4c 4Fn\	.	.	.	.
*	*v	*v	*	*	*	*
!!LO:LB:g=original
=6	=6	=6	=6	=6	=6
*^	*	*	*	*	*
!	!	!	!	!LO:TX:t=ŚPIEW.	!	!
4GG 4GGG/	4ryy	4e/]	.	1r	.	.
4B/	2.G\	4g 4f/	.	.	.	.
4c/	.	4a 4f/	.	.	.	.
4B/	.	4ee 4g 4f/	.	.	.	.
*v	*v	*	*	*	*	*
=7	=7	=7	=7	=7	=7
*	*^	*	*	*	*
2E 2GG 2CC/	[1cc	8re	.	1r	.	.
.	.	8gL 8e\	>	.	.	.
.	.	8a-X 8f\	.	.	.	.
.	.	8b-XJ 8g\	.	.	.	.
2A-X 2C 2FF\	.	8a-L 8f\	.	.	.	.
.	.	8f 8d\	.	.	.	.
.	.	8g 8e\	.	.	.	.
.	.	8a-J 8f\	]	.	.	.
*	*v	*v	*	*	*	*
=8	=8	=8	=8	=8	=8
4E 4GG 4CC/	4cc] 4g 4e/	.	1r	.	.
4r	4r	.	.	.	.
4C 4CC/	4ccc 4gg 4ee 4cc\	sf	.	.	.
4r	4r	.	.	.	.
=9||	=9||	=9||	=9||	=9||	=9||
*>B	*>B	*>B	*>B	*>B	*>B
*	*^	*	*	*	*
4C 4CC/	[1gg	4r	p	[1gg	List_	Cóż_
4e 4c 4G\	.	4ee 4cc 4a\	.	.	.	.
4C#X 4CC#X/	.	4r	.	.	.	.
4e 4A#X 4G\	.	4ee 4a#X 4g\	.	.	.	.
*	*v	*v	*	*	*	*
=10	=10	=10	=10	=10	=10
4D 4DD/	4gg\]	.	4gg\]	.	.
4f 4B 4G\	8ffL 8b 8an\	.	8ff\	twój	mi
.	8eeJ 8g\	.	8ee\	za	po
4GG 4GGG/	8ddL 8f\	.	8dd\	pó-	kwia-
.	8ee 8g\	.	8ee\	-źno	-tach
4f 4B 4G\	8ff 8a\	.	8ff\	przy-	pię-
.	8ggJ 8b\	.	8gg\	-szedł	-knych
=11	=11	=11	=11	=11	=11
*	*^	*	*	*	*
8.C\L	[1ee	4cc 4g\	.	[1ee	już_	słów,_
16G\K	.	.	.	.	.	.
8.A\	.	4cc 4g\	.	.	.	.
16B\Jk	.	.	.	.	.	.
8.c\L	.	4cc 4g\	.	.	.	.
16B\K	.	.	.	.	.	.
8.A\	.	4cc 4g\	.	.	.	.
16A-X\Jk	.	.	.	.	.	.
*	*v	*v	*	*	*	*
!!LO:LB:g=original
=12	=12	=12	=12	=12	=12
4G\	4ee] 4cc 4g\	.	4ee\]	.	.
4G\	4g 4e 4c/	.	4g/	I	Gdy
4A\	4a 4e 4c/	.	4a/	kwia-	tam-
4c\	4cc 4g 4e/	.	4cc\	-ty	-te
=13	=13	=13	=13	=13	=13
*	*^	*	*	*	*
4AA 4AAA/	[1ee	4r	.	[1ee	twe:_	dni_
4c 4F#X 4D\	.	4cc 4f#X\	.	.	.	.
4GG#X 4GGG#X/	.	4r	.	.	.	.
4B 4Fn 4D\	.	4b 4fn\	.	.	.	.
*	*v	*v	*	*	*	*
=14	=14	=14	=14	=14	=14
4AA 4AAA/	4ee] 4cc 4f#X\	.	4ee\]	.	.
4c 4F#X 4D\	8ddL 8f#/	.	8dd\	pęk	ni-
.	8ccJ 8e/	.	8cc\	czer-	-gdy
4GG 4GGG/	8bL 8d/	.	8b\	-wo-	nie
.	8cc 8e/	.	8cc\	-nych,	po-
4B 4G 4Fn\	8dd 8fn/	.	8dd\	won-	-wró-
.	8eeJ 8g/	.	8ee\	-nych	-cą
=15	=15	=15	=15	=15	=15
*	*^	*	*	*	*
4E 4GG 4CC/	[1cc	4g 4e\	.	[1cc	róż,_	znów,_
4G\	.	4g 4e 4c\	.	.	.	.
8B\L	.	8bL 8e 8c\	.	.	.	.
8A\J	.	8aJ 8e 8c\	.	.	.	.
4A-X\	.	4a-X 4e 4c\	.	.	.	.
=16	=16	=16	=16	=16	=16	=16
4G\	4cc/]	4g 4e 4c\	.	4cc\]	.	.
4r	4cc 4g 4e/	4ryy	>	4cc\	Dni,	Tak
2G 2C\	4b 4g 4e/	2ryy	.	4b\	któ-	w ży-
.	4cc 4g 4e/	.	]]	4cc\	-re	-ciu
*	*v	*v	*	*	*	*
=17	=17	=17	=17	=17	=17
4D 4GG/	2dd 2a 2f/	.	2dd\	bie-	by-
4D 4GG/	.	.	.	.	.
4D 4GG/	[2g [2f [2B/	.	[2g/	-gą_	-wa,_
4D 4GG/	.	.	.	.	.
=18	=18	=18	=18	=18	=18
4D 4GG/	4g] 4f] 4B/]	.	4g/]	.	.
4D 4GG/	4dd 4b 4f/	.	4dd\	są	szko-
4D 4GG/	4ee 4b 4g\	.	4ee\	bez	-da
4D 4GG/	4ff 4b 4a\	.	4ff\	po-	twych
!!LO:LB:g=original
=19	=19	=19	=19	=19	=19
*^	*^	*	*	*	*
4GG 4CC/	2ryy	8eeL 8cc 8g\	2ryy	.	8ee\	-wrot-	skarg
.	.	8ddJ 8f\	.	.	8dd\	-nym	i
4c 4G 4E\	.	[2.cc [>2.e/	.	.	[2.cc\	snem,_	łez,_
4A/	[2C\	.	4e 4c\	.	.	.	.
4A-X/	.	.	4e 4c\	.	.	.	.
*v	*v	*	*	*	*	*	*
=20	=20	=20	=20	=20	=20	=20
4C] 4GG 4CC/	4cc] 4e/]	4e 4c\	<	4cc\]	.	.
4c\	4ee 4cc 4g/	4ryy	.	4ee\	Już	By-
4B\	4dd#X 4cc 4g/	2ryy	.	4dd#X\	do	-łam
4B-X\	4ee 4cc 4g/	.	[	4ee\	in-	szczę-
*	*v	*v	*	*	*	*
=21	=21	=21	=21	=21	=21
4A 4F#X 4BB\	2ff#X 2b 2a\	.	2ff#X\	-ne-	-śli-
4F# 4BB\	.	.	.	.	.
4F# 4BB\	[2b [2a [2d#X/	.	[2b\	-go_	-wa,_
4F# 4BB\	.	.	.	.	.
=22	=22	=22	=22	=22	=22
4F#X 4BB\	4b] 4a] 4d#/]	.	4b\]	.	.
4F# 4BB\	4ff#X 4dd#X 4a\	.	4ff#X\	na-	aż
4F# 4BB\	4gg 4dd# 4b\	.	4gg\	-le-	przy-
4F# 4BB\	4aa 4dd# 4cc\	.	4aa\	-żą	-szedł
=23	=23	=23	=23	=23	=23
*	*^	*	*	*	*
4E 4EE/	8ggL 8ee 8b\	2ryy	f	8gg\	cia-	smut-
.	8ff#XJ 8a\	.	.	8ff#X\	-łem	-ny
4e 4B 4G\	2.ee 2.g/	.	>	2.ee\	mem,	kres,
4C#X 4CC#X/	.	4re	.	.	.	.
4e 4B-X 4G\	.	4b-X 4g\	]	.	.	.
=24	=24	=24	=24	=24	=24	=24
4D 4DD/	8ffnL 8cc 8a\	2ryy	p	8ffn\	Ży-	Szczę-
.	8eeJ 8g\	.	.	8ee\	-ciem	-ścia
4d 4c 4A\	2.dd 2.f/	.	.	2.dd\	mem.	kres.
4GG 4GGG/	.	4rd	.	.	.	.
4B 4G 4F\	.	4g 4f\	>]	.	.	.
=25	=25	=25	=25	=25	=25	=25
4C 4CC/	[1gg	4r	p	[1gg	Lecz_	Dziś_
4e 4c 4G\	.	4ee 4cc 4a\	.	.	.	.
4C#X 4CC#X/	.	4r	.	.	.	.
4e 4A#X 4G\	.	4ee 4a#X 4g\	.	.	.	.
*	*v	*v	*	*	*	*
!!LO:LB:g=original
=26	=26	=26	=26	=26	=26
4D 4DD/	4gg\]	.	4gg\]	.	.
4f 4B 4G\	8ffL 8bn 8a\	.	8ff\	choć	list
.	8eeJ 8g\	.	8ee\	bym	spó-
4GG 4GGG/	8ddL 8f\	.	8dd\	by-	-znio-
.	8ee 8g\	.	8ee\	-ła	-ny
4f 4B 4G\	8ff 8a\	.	8ff\	nie	zwra-
.	8ggJ 8b\	.	8gg\	wiem	-cam
=27	=27	=27	=27	=27	=27
*	*^	*	*	*	*
8.C\L	[1ee	4cc 4g\	.	[1ee	gdzie,_	ci,_
16G\K	.	.	.	.	.	.
8.A\	.	4cc 4g\	.	.	.	.
16B\Jk	.	.	.	.	.	.
8.c\L	.	4cc 4g\	.	.	.	.
16B\K	.	.	.	.	.	.
8.A\	.	4cc 4g\	.	.	.	.
16A-X\Jk	.	.	.	.	.	.
*	*v	*v	*	*	*	*
=28	=28	=28	=28	=28	=28
4G\	4ee] 4cc 4g\	.	4ee\]	.	.
4G\	4g 4e 4c/	<	4g/	Ko-	List,
4A\	4a 4e 4c/	.	4a/	-cha-	któ-
4c\	4cc 4g 4e/	[	4cc\	-ny	-ry
=29	=29	=29	=29	=29	=29
*	*^	*	*	*	*
4AA 4AAA/	[1ee	4r	.	[1ee	mój,_	skradł_
4c 4F#X 4D\	.	4cc 4f#X\	.	.	.	.
4GG#X 4GGG#X/	.	4r	.	.	.	.
4B 4Fn 4D\	.	4b 4fn\	.	.	.	.
=30	=30	=30	=30	=30	=30	=30
4AA 4AAA/	4ee/]	4cc 4f#X\	.	4ee\]	.	.
4c 4F#X 4D\	8ddL 8f#/	4ryy	.	8dd\	ni-	spo-
.	8ccJ 8e/	.	.	8cc\	-gdy	-kój
4DD/	8bL 8f# 8d/	2ryy	.	8b\	nie	re-
.	8a 8c/	.	.	8a/	za-	-szty
4c 4F# 4D\	8b 8f# 8d/	.	.	8b\	-po-	mo-
.	8ccJ 8e/	.	.	8cc\	-mnę	-ich
=31	=31	=31	=31	=31	=31	=31
4D 4GG/	[1dd [<1fn	4r	.	[1dd	cię._	dni.
4B\	.	4g\	.	.	.	.
8.c\L	.	8.a-X\L	.	.	.	.
16d\Jk	.	16b-X\Jk	.	.	.	.
4c\	.	4a-\	.	.	.	.
!!LO:PB:g=original
=32	=32	=32	=32	=32	=32	=32
4B 4D 4GG\	4dd] 4f/]	4g\	.	4dd\]	.	.
!	!	!	!	!LO:TX:a:t=REFRAIN.	!	!
4r	4g/	4ryy	.	4g/	O-	.
2F 2GG/	8bL 8g 8d#X 8B/	2ryy	p	8b/	-sta-	.
.	8a/	.	.	8a/	-tni	.
.	8b 8g 8d# 8B/	.	.	8b/	je-	.
.	8a/J	.	.	8g/	-szcze	.
=33!|:	=33!|:	=33!|:	=33!|:	=33!|:	=33!|:	=33!|:
*>C	*>C	*>C	*>C	*>C	*>C	*>C
4C 4CC/	[1e	4r	.	[1e	raz_	.
4r	.	8.cL 8.G\	.	.	.	.
.	.	16e\Jk	.	.	.	.
4GG 4GGG/	.	8.BL 8.G\	.	.	.	.
.	.	16e\K	.	.	.	.
4r	.	8.A\	.	.	.	.
.	.	16A-X\Jk	.	.	.	.
=34	=34	=34	=34	=34	=34	=34
4C 4CC/	4e/]	4c 4G\	.	4e/]	.	.
4r	4g 4e 4c/	4ryy	.	4g/	Chcę	.
4E 4EE/	4b 4g 4c/	2ryy	.	4b/	śnić	.
4E-X 4EE-X/	4a 4f#X 4c/	.	.	4a/	o	.
=35	=35	=35	=35	=35	=35	=35
4D 4DD/	2g/	4r	.	2g/	to-	.
4r	.	4B 4G\	.	.	.	.
4GG 4GGG/	[2f/	4r	.	[2f/	-bie,_	.
4r	.	4B 4G\	.	.	.	.
*	*v	*v	*	*	*	*
=36	=36	=36	=36	=36	=36
4D 4DD/	4f/]	.	4f/]	.	.
4r	4a 4f 4d/	.	4a/	O-	.
4GG 4GGG/	8ccL 8a 8f/	.	8cc\	-sta-	.
.	8b/	.	8b\	-tni	.
4r	8cc 8a 8f/	.	8cc\	je-	.
.	8b/J	.	8b\	-szcze	.
=37	=37	=37	=37	=37	=37
*	*^	*	*	*	*
4D 4DD/	[1f	4r	.	[1f	raz_	.
4r	.	8.B\L	.	.	.	.
.	.	16d\Jk	.	.	.	.
4C 4CC/	.	8.A\L	.	.	.	.
.	.	16d\K	.	.	.	.
4r	.	8.A-X\	.	.	.	.
.	.	16d\Jk	.	.	.	.
*	*v	*v	*	*	*	*
=38	=38	=38	=38	=38	=38
4BB 4BBB/	4f] 4G/	.	4f/]	.	.
4r	4a 4f 4d/	.	4a/	Chcę	.
4GG 4GGG/	4cc 4a 4f/	.	4cc\	być	.
4r	4b 4g 4d#X/	.	4b\	przy	.
!!LO:LB:g=original
=39	=39	=39	=39	=39	=39
*	*^	*	*	*	*
4C 4CC/	2a/	4r	.	2a/	to-	.
4r	.	4e 4c\	.	.	.	.
4GG 4GGG/	[2g/	4r	.	[2g/	-bie,_	.
4r	.	4e 4c\	.	.	.	.
*	*v	*v	*	*	*	*
=40	=40	=40	=40	=40	=40
4C 4CC/	4g/]	.	4g/]	.	.
4E\	4g 4c/	<	4g/	I	.
4E-X\	4a 4f#X 4c/	.	4a/	pa-	.
4D\	4b 4g 4fn/	[	4b/	-trzeć	.
=41	=41	=41	=41	=41	=41
4C 4CC/	4cc\	.	4cc\	w o-	.
4c 4G 4E\	8ddL 8g 8e/	.	8dd\	-czy	.
.	8ee/J	.	8ee\	twe	.
4GG 4GGG/	4dd\	.	4dd\	cie-	.
4c 4G 4E\	8ccL 8g 8e/	.	8cc\	-mne,	.
.	8b/J	.	8b\	Za-	.
=42	=42	=42	=42	=42	=42
4C 4CC/	4a/	.	4a/	-mglo-	.
4c 4G 4E\	8bL 8g 8e/	.	8b\	-ne,	.
.	8cc/J	.	8cc\	ta-	.
4C 4CC/	4b/	.	4b\	-je-	.
4C#X 4CC#X/	8aL 8e 8B-X/	.	8a/	-mne	.
.	8g/J	.	8g/	jak	.
=43	=43	=43	=43	=43	=43
*	*^	*	*	*	*
4D 4DD/	[1f	4r	.	[1f	noc._	.
4r	.	4d 4A\	.	.	.	.
4AA 4AAA/	.	4r	.	.	.	.
4r	.	4d 4A\	.	.	.	.
*	*v	*v	*	*	*	*
=44	=44	=44	=44	=44	=44
4D 4DD/	4f/]	.	4f/]	.	.
4r	4f 4d 4A/	.	4f/	Od-	.
4AA 4AAA/	4g/	.	4g/	-da-	.
4r	4a 4f 4d/	.	4a/	-wać	.
!!LO:LB:g=original
=45	=45	=45	=45	=45	=45
4D 4DD/	4b/	.	4b\	ser-	.
4A 4F\	8ccL 8a 8f/	.	8cc\	-ca	.
.	8dd/J	.	8dd\	sny	.
4GG 4GGG/	4cc/	.	4cc\	zło-	.
4G 4F\	8bL 8g 8f/	.	8b\	-te	.
.	8a/J	.	8a/	W twych	.
=46	=46	=46	=46	=46	=46
4D 4DD/	4g/	.	4g/	ra-	.
4G 4F\	8aL 8f/	.	8a/	-mion	.
.	8b/J	.	8b/	pie-	.
4GG 4GGG/	4a/	.	4a/	-szczo-	.
4G 4F\	8gL 8B/	.	8g/	-tę	.
.	8f/J	.	8f/	I	.
=47	=47	=47	=47	=47	=47
*	*^	*	*	*	*
4CC/	[1e	4r	.	[1e	moc._	.
!LO:TUP:b	!	!	!	!	!	!
12C/L	.	4c 4G\	>	.	.	.
12D/	.	.	.	.	.	.
12D#X/J	.	.	.	.	.	.
8.E/L	.	4c 4G\	.	.	.	.
16C/K	.	.	.	.	.	.
8.AA/	.	4c 4A 4F#X\	.	.	.	.
16C/Jk	.	.	]	.	.	.
*	*v	*v	*	*	*	*
=48	=48	=48	=48	=48	=48
4GG/	4e] 4c 4G/	.	4e/]	.	.
4r	4g/	.	4g/	O-	.
2F 2GG/	8bL 8g 8d#X 8B/	.	8b/	-stat-	.
.	8a/	.	8a/	-ni	.
.	8b 8g 8d# 8B/	.	8b/	je-	.
.	8a/J	.	8a/	-szcze	.
=49	=49	=49	=49	=49	=49
*	*^	*	*	*	*
4C 4CC/	[1e	4r	.	[1e	raz_	.
4r	.	8.cL 8.G\	.	.	.	.
.	.	16e\Jk	.	.	.	.
4GG 4GGG/	.	8.BL 8.G\	.	.	.	.
.	.	16e\K	.	.	.	.
4r	.	8.A\	.	.	.	.
.	.	16A-X\Jk	.	.	.	.
*	*v	*v	*	*	*	*
=50	=50	=50	=50	=50	=50
4C 4CC/	4e] 4c 4G/	.	4e/]	.	.
4r	4g 4e 4c/	.	4g/	Siądź	.
4E 4EE/	4b 4g 4c/	.	4b/	przy	.
4E-X 4EE-X/	4a 4f#X 4c/	.	4a/	mnie	.
=51	=51	=51	=51	=51	=51
*	*^	*	*	*	*
4D 4DD/	2g/	4r	.	2g/	bliz-	.
4r	.	4B 4G\	.	.	.	.
4GG 4GGG/	[2f/	4r	.	[2f/	-ko,_	.
4r	.	4B 4G\	.	.	.	.
*	*v	*v	*	*	*	*
!!LO:LB:g=original
=52	=52	=52	=52	=52	=52
!	!LO:TX:t=P:problem:zakończenie łuku dołem	!	!	!	!
4D 4DD/	4f/]	.	4f/]	.	.
4r	4a 4f 4d/	.	4a/	Wspo-	.
4GG 4GGG/	8ccL 8a 8f/	.	8cc\	-mnie-	.
.	8b/	.	8b\	-nie	.
4r	8cc 8a 8f/	.	8cc\	złą-	.
.	8b/J	.	8b\	-czy	.
=53	=53	=53	=53	=53	=53
*	*^	*	*	*	*
4D 4DD/	[1f	4r	.	[1f	nas_	.
4r	.	8.d\L	.	.	.	.
.	.	16c\Jk	.	.	.	.
4GG/	.	8.B\L	.	.	.	.
.	.	16d\K	.	.	.	.
4FF/	.	8.A\	.	.	.	.
.	.	16d\Jk	.	.	.	.
*	*v	*v	*	*	*	*
=54	=54	=54	=54	=54	=54
4EE/	4f] 4d 4G#X/	.	4f/]	.	.
4r	4e 4d 4G#/	.	4e/	I	.
2E\	4g#X 4f 4d 4B/	.	4g#X/	serc	.
.	4b 4g# 4f 4d/	.	4b/	o-	.
=55	=55	=55	=55	=55	=55
*	*^	*	*	*	*
2F 2GG#X/	2dd/	4r	.	2dd\	-gni-	.
.	.	4b 4g#X 4f\	.	.	.	.
2E 2AA/	[2cc/	4r	.	[2cc\	-sko,_	.
.	.	4a 4e\	.	.	.	.
*	*v	*v	*	*	*	*
=56	=56	=56	=56	=56	=56
4AA 4AAA/	4cc/]	.	4cc\]	.	.
4A\	4a 4e 4c/	<	4a/	O-	.
4G#X\	4b 4e 4d/	.	4b\	-bej-	.
4Gn\	4cc 4a 4e/	[	4cc\	-mij	.
=57	=57	=57	=57	=57	=57
*	*^	*	*	*	*
4F#X 4FF#X/	[1ee	4r	.	[1ee	mnie,_	.
4c 4A\	.	8ccL 8a 8d\	.	.	.	.
.	.	8ccJ 8a 8d\	.	.	.	.
4D 4DD/	.	4cc 4a 4d\	.	.	.	.
4c 4A 4F#\	.	8ccL 8a 8d\	.	.	.	.
.	.	8ccJ 8a 8d\	.	.	.	.
=58	=58	=58	=58	=58	=58	=58
4F#X 4FF#X/	4ee/]	4cc 4a 4d\	.	4ee\]	.	.
4d 4c 4A\	8ddL 8a/	4ryy	.	8dd\	Za-	.
.	8cc/J	.	.	8cc\	-nim	.
4D 4DD/	8bL 8f#X/	2ryy	.	8b\	skoń-	.
.	8dd/	.	.	8dd\	-czy	.
4D#X 4DD#X/	8cc 8f#/	.	.	8cc\	się	.
.	8a/J	.	.	8a/	to	.
!!LO:LB:g=original
=59	=59	=59	=59	=59	=59	=59
4E 4EE/	2b 2B/	4r	.	2b\	wszy-	.
4r	.	4g 4e 4c\	.	.	.	.
4GG 4GGG/	[2a 2A/	4ryy	.	[2a/	-stko,_	.
4r	.	4e 4c\	.	.	.	.
=60	=60	=60	=60	=60	=60	=60
4AA 4AAA/	4a] 4A/	4c#X 4G\	.	4a/]	.	.
4r	4g/	4ryy	.	4g/	O-	.
2A\	8bL 8g 8c#/	2ryy	>	8b/	-sta-	.
.	8a/	.	.	8a/	-tni	.
.	8b 8g 8c#/	.	.	8b/	je-	.
.	8a/J	.	]	8a/	-szcze	.
=61	=61	=61	=61	=61	=61	=61
4AA 4AAA/	[1e	4r	.	[1e	raz,_	.
4r	.	4cn 4F#X\	.	.	.	.
4AA-X 4AAA-X/	.	4r	.	.	.	.
4r	.	4c 4Fn\	.	.	.	.
*	*v	*v	*	*	*	*
=62	=62	=62	=62	=62	=62
*^	*	*	*	*	*
4GG 4GGG/	4ryy	4e/]	.	4e/]	.	.
4B/	2.G\	4g 4f/	.	4g/	O-	.
4c/	.	4a 4f/	.	4a/	-sta-	.
4B/	.	4ee 4g 4f/	.	4ee\	-tni	.
*v	*v	*	*	*	*	*
=63	=63	=63	=63	=63	=63
!!LO:TX:a:B:t=1.
*>C1	*>C1	*>C1	*>C1	*>C1	*>C1
*	*^	*	*	*	*
4C 4CC/	4cc 4g 4e/	2ryy	.	4cc\	raz!	.
4r	4g/	.	<	4r	.	.
2E-X 2EE-X/	4a/	2f#X 2c\	.	2r	.	.
.	4b/	.	[	.	.	.
=64	=64	=64	=64	=64	=64	=64
2D 2DD/	4a/	4fn 4c\	>	4r	.	.
.	4g/	4f 4B\	.	4g/	O-	.
2F 2GG/	8bL 8g 8d# 8B~/	2ryy	]	8b/	-sta-	.
.	8a/	.	.	8a/	-tni	.
.	8b 8g 8d# 8B~/	.	.	8b/	je-	.
.	8a/J	.	.	8a/	-szcze	.
=65:|!	=65:|!	=65:|!	=65:|!	=65:|!	=65:|!	=65:|!
!!LO:TX:a:B:t=2.
*>C2	*>C2	*>C2	*>C2	*>C2	*>C2	*>C2
2E 2GG 2CC/	[1cc	8re	.	[1cc	raz!_	.
.	.	8gL 8e\	.	.	.	.
.	.	8a-X 8f\	>	.	.	.
.	.	8b-XJ 8g\	.	.	.	.
2A-X 2C 2FF/	.	8a-L 8f\	.	.	.	.
.	.	8f 8d\	.	.	.	.
.	.	8g 8e\	.	.	.	.
.	.	8a-J 8f\	.	.	.	.
*	*v	*v	*	*	*	*
=66	=66	=66	=66	=66	=66
4E 4GG 4CC/	4cc] 4g 4e/	]]	4cc\]	.	.
4r	4r	.	4r	.	.
4C 4CC/	4ccc 4gg 4ee 4cc\	.	2r	.	.
4r	4r	.	.	.	.
==	==	==	==	==	==
*-	*-	*-	*-	*-	*-
!!!system-decoration: s1{(s2,s3)}
!!!RDF**kern: > = above
!!!RDF**kern: < = below
!!!RDF**kern: N = linked
!!!ENC: Anastazja Marusiak
!!!EED: Katarzyna Serwa
!!!END: 2023-08-23
!!!EEV: 2023-09-27
